!!! OTL: Berkowitz156
!!! Chapter: 1
!!! Section: I
!!! Page: 35
!!! Mode: 
!!! Encoder: DJB
**kern
*staff1
*I"Piano
=1-
*clefF4
*k[f#c#g#]
*f#:
*met(c)
*M4/4
8.F#\L
16A\Jk
8.G#\L
16A\Jk
8.F#\L
16A\Jk
8.G#\L
16A\Jk
=2
8.F#\L
16A\Jk
8G#\L
8B\J
8d\L
8B\J
4G#\
=3
8E#\L
8F#\J
4G#\
8C#/L
8D#/J
4E#\
=4
8F#\L
8E#\
8F#\
8G#\J
4A\
4r
=5
8.G#\L
16F#\Jk
8.E#\L
16F#\Jk
8G#\
8r
8C#/
8r
=6
!!linebreak:original
8.A\L
16B\Jk
8.c#\L
16B\Jk
8A\
8r
8C#/
8r
=7
8.G#\L
16B\Jk
8.d\L
16B\Jk
8G#\L
8B\
8c#\
8d\J
=8
8c#\L
8C#\J
8.A\L
16G#\Jk
4F#\
4r
==
*-
